images/aboni_inversa.svg

<?xml version="1.0" encoding="UTF-8" standalone="no"?>
<svg
   xmlns:dc="http://purl.org/dc/elements/1.1/"
   xmlns:cc="http://creativecommons.org/ns#"
   xmlns:rdf="http://www.w3.org/1999/02/22-rdf-syntax-ns#"
   xmlns:svg="http://www.w3.org/2000/svg"
   xmlns="http://www.w3.org/2000/svg"
   version="1.1"
   id="svg2"
   height="576"
   width="1920">
  <defs
     id="defs4" />
  <metadata
     id="metadata7">
    <rdf:RDF>
      <cc:Work
         rdf:about="">
        <dc:format>image/svg+xml</dc:format>
        <dc:type
           rdf:resource="http://purl.org/dc/dcmitype/StillImage" />
        <dc:title></dc:title>
      </cc:Work>
    </rdf:RDF>
  </metadata>
  <g
     transform="translate(588.10193,-396.16043)"
     id="layer1">
    <path
       id="rect3081"
       transform="translate(-588.10193,398.65225)"
       d="M 0.6875,0.5 C 0.59114808,0.5 0.5,0.59114808 0.5,0.6875 l 0,572.125 C 0.5,572.9089 0.5911481,573 0.6875,573 l 1918.9375,0 c 0.096,0 0.1562,-0.0911 0.1562,-0.1875 l 0,-572.125 c 0,-0.0963519 -0.06,-0.1875 -0.1562,-0.1875 L 0.6875,0.5 Z m 323.65625,92 c 80.7098,0 146.125,65.4152 146.125,146.125 0,46.1434 -21.37823,87.27957 -54.78125,114.0625 -0.0224,0.018 -0.0401,0.0446 -0.0625,0.0625 -2.39578,1.9294 -5.44982,3.56565 -8.5,3.65625 -6.67379,0 -12.0625,-5.68002 -12.0625,-12.6875 0.083,-5.46138 3.1686,-9.39568 8.3125,-13.21875 25.81489,-22.22289 42.15625,-55.13752 42.15625,-91.875 0,-66.93009 -54.25741,-121.1875 -121.1875,-121.1875 -66.93008,0 -121.1875,54.25741 -121.1875,121.1875 0,36.73748 16.34136,69.65211 42.15625,91.875 -0.0112,0.0298 -0.02,0.0639 -0.0312,0.0937 4.90548,4.35579 6.96639,8.33007 6.78125,12.71875 -0.30748,7.28886 -5.39966,12.35216 -13.21875,11.15625 -4.7286,-0.72323 -7.98541,-3.7555 -11.6875,-6.75 -30.01937,-26.76689 -48.9688,-65.71287 -48.9688,-109.0937 0,-80.7098 65.44646,-146.125 146.15625,-146.125 z m 591.34375,24.1875 56.78125,0 0,127.15625 0.8125,0 c 16.51456,-21.88171 38.19485,-32.81227 65.03125,-32.8125 31.3777,2.3e-4 54.9857,11.35506 70.8125,34.0625 13.762,19.81776 20.6248,46.25208 20.625,79.28125 -2e-4,32.89177 -6.863,59.37597 -20.625,79.46875 -15.9644,23.39577 -39.5725,35.09375 -70.8125,35.09375 -29.4513,0 -51.68679,-10.61869 -66.6875,-31.8125 l -0.8125,0 0,26.65625 -55.125,0 0,-317.09375 z m 776.5937,5.5625 56.7813,0 0,54.09375 -56.7813,0 0,-54.09375 z m -992.5312,16.3125 66.875,0 115.8125,295.21875 -65.4375,0 -25.375,-67.71875 -119.75,0 -25.78125,67.71875 -61.3125,0 L 699.75,138.5625 Z m -375.40625,3.5 c 53.33912,0 96.59375,43.22339 96.59375,96.5625 0,27.49638 -11.52248,52.31473 -29.96875,69.90625 -1.93834,1.79868 -4.95155,2.87352 -8.28125,3.15625 -6.59037,0 -11.9375,-5.46154 -11.9375,-12.21875 0,-4.28707 2.03043,-7.34172 5.40625,-10.25 0.01,-0.0101 0.0213,-0.0211 0.0312,-0.0312 12.75258,-13.04878 20.59375,-30.87344 20.59375,-50.5625 0,-40.00394 -32.43356,-72.4375 -72.4375,-72.4375 -40.00394,0 -72.40625,32.43356 -72.40625,72.4375 0,20.00937 8.10262,38.08748 21.21875,51.1875 2.85429,2.91099 4.991,5.80109 5,9.78125 0.0149,6.75719 -5.54481,12.62794 -12.375,12.25 -4.31087,-0.23854 -7.91921,-3.04254 -10.53125,-5.8125 -16.96818,-17.40598 -27.46875,-41.17831 -27.46875,-67.40625 0,-53.33911 43.22339,-96.5625 96.5625,-96.5625 z m 0,48.5 c 26.55455,0 48.09375,21.50795 48.09375,48.0625 0,26.55455 -21.5392,48.09375 -48.09375,48.09375 -26.55455,0 -48.0625,-21.5392 -48.0625,-48.09375 0,-26.55455 21.50795,-48.0625 48.0625,-48.0625 z m 407.1875,7.25 -42.71875,121.8125 86.28125,0 -42.71875,-121.8125 -0.84375,0 z m 542.53125,13.21875 c 33.0292,2.3e-4 60.1185,10.24451 81.3125,30.75 21.8817,21.19398 32.8429,49.42512 32.8438,84.65625 -9e-4,32.34127 -10.0637,58.87536 -30.1563,79.65625 -20.9188,21.88193 -48.9065,32.84375 -84,32.84375 -34.9561,0 -62.894,-10.96182 -83.8125,-32.84375 -19.9552,-20.78089 -29.9375,-47.31498 -29.9375,-79.65625 0,-35.23113 10.8807,-63.46227 32.625,-84.65625 21.0561,-20.50549 48.0956,-30.74977 81.125,-30.75 z m 284.6563,0 c 24.6336,2.3e-4 43.4378,8.05467 56.375,24.15625 11.697,14.86337 17.531,35.22095 17.5312,61.09375 l 0,137.5 -56.5625,0 0,-116.21875 c -2e-4,-19.12934 -1.5849,-32.9174 -4.75,-41.3125 -5.3674,-14.17491 -16.0859,-21.24983 -32.1875,-21.25 -18.1662,1.7e-4 -31.6117,8.52878 -40.2812,25.59375 -6.3313,12.66138 -9.4689,28.21501 -9.4688,46.65625 l 0,106.53125 -56.7812,0 0,-217.8125 53.6874,0 0,29.75 1.0313,0 c 16.3769,-23.12031 40.1654,-34.68727 71.4063,-34.6875 z m 133.5624,4.9375 56.7813,0 0,217.8125 -56.7813,0 0,-217.8125 z M 1023.6562,255 c -16.7898,1.7e-4 -29.81062,7.71149 -39.0312,23.125 -7.84455,13.07424 -11.75009,28.49688 -11.75,46.25 -9e-5,18.30384 3.56231,33.90735 10.71875,46.84375 8.94534,15.82659 21.96595,23.75004 39.03125,23.75 16.9274,4e-5 29.5729,-8.05442 37.9688,-24.15625 6.6049,-12.66117 9.906,-28.13366 9.9062,-46.4375 -2e-4,-18.02837 -3.2194,-33.23886 -9.6875,-45.625 -8.2575,-15.82637 -20.6418,-23.74983 -37.1563,-23.75 z m 250.4063,0 c -17.3405,1.7e-4 -31.048,6.68207 -41.0937,20.03125 -9.0838,12.11089 -13.6257,26.97825 -13.625,44.59375 -7e-4,50.23214 18.2487,75.34379 54.7187,75.34375 36.6073,4e-5 54.9055,-25.11161 54.9063,-75.34375 -8e-4,-18.02837 -4.5426,-32.97684 -13.625,-44.8125 -9.9096,-13.21155 -23.6658,-19.81233 -41.2813,-19.8125 z m -949.71875,57.3125 c 26.55454,0 48.09375,21.53921 48.09375,48.09375 0,0.0512 1.6e-4,0.10515 0,0.15625 l 0,72.71875 c 2.4e-4,0.0614 0,0.0947 0,0.15625 0,26.55454 -21.53921,48.09375 -48.09375,48.09375 -26.55454,0 -48.0625,-21.53921 -48.0625,-48.09375 0,-0.0512 -1.5e-4,-0.0739 0,-0.125 -0.002,-0.0107 0,-0.0202 0,-0.0312 l 0,-72.71875 c -1.5e-4,-0.0512 0,-0.10515 0,-0.15625 0,-26.55454 21.50796,-48.09375 48.0625,-48.09375 z"
       style="color:#000000;display:inline;overflow:visible;visibility:visible;opacity:1;fill:#ffffff;fill-opacity:1;fill-rule:nonzero;stroke:none;stroke-width:1.0194217;stroke-linecap:round;stroke-linejoin:round;stroke-miterlimit:4;stroke-dasharray:none;stroke-dashoffset:0;stroke-opacity:1;marker:none;enable-background:accumulate" />
  </g>
</svg>

<?xml version="1.0" encoding="UTF-8" standalone="no"?>
<!-- Created with Inkscape (http://www.inkscape.org/) -->

<svg
   xmlns:dc="http://purl.org/dc/elements/1.1/"
   xmlns:cc="http://creativecommons.org/ns#"
   xmlns:rdf="http://www.w3.org/1999/02/22-rdf-syntax-ns#"
   xmlns:svg="http://www.w3.org/2000/svg"
   xmlns="http://www.w3.org/2000/svg"
   xmlns:sodipodi="http://sodipodi.sourceforge.net/DTD/sodipodi-0.dtd"
   xmlns:inkscape="http://www.inkscape.org/namespaces/inkscape"
   width="1920.2983"
   height="573.50818"
   id="svg2"
   version="1.1"
   inkscape:version="0.48.2 r9819"
   sodipodi:docname="abonbutono-dika_inversa.svg">
  <defs
     id="defs4">
    <clipPath
       clipPathUnits="userSpaceOnUse"
       id="clipPath3006">
      <rect
         style="color:#000000;fill:#ffffff;fill-opacity:0.36866359;fill-rule:nonzero;stroke:none;stroke-width:1;marker:none;visibility:visible;display:inline;overflow:visible;enable-background:accumulate"
         id="rect3008"
         width="47.857143"
         height="47.857143"
         x="527.14288"
         y="835.57648"
         rx="0.1739222" />
    </clipPath>
  </defs>
  <sodipodi:namedview
     id="base"
     pagecolor="#bcffff"
     bordercolor="#666666"
     borderopacity="1.0"
     inkscape:pageopacity="0.65882353"
     inkscape:pageshadow="2"
     inkscape:zoom="0.57"
     inkscape:cx="1086.5028"
     inkscape:cy="177.32289"
     inkscape:document-units="px"
     inkscape:current-layer="layer1"
     showgrid="false"
     inkscape:snap-bbox="true"
     inkscape:window-width="1600"
     inkscape:window-height="848"
     inkscape:window-x="-8"
     inkscape:window-y="-8"
     inkscape:window-maximized="1"
     showguides="true"
     inkscape:guide-bbox="true"
     inkscape:snap-nodes="true"
     inkscape:object-nodes="true"
     inkscape:snap-global="true"
     inkscape:bbox-nodes="true"
     inkscape:snap-smooth-nodes="true"
     inkscape:snap-to-guides="true"
     inkscape:snap-grids="false"
     fit-margin-top="0"
     fit-margin-left="0"
     fit-margin-right="0"
     fit-margin-bottom="0" />
  <metadata
     id="metadata7">
    <rdf:RDF>
      <cc:Work
         rdf:about="">
        <dc:format>image/svg+xml</dc:format>
        <dc:type
           rdf:resource="http://purl.org/dc/dcmitype/StillImage" />
        <dc:title></dc:title>
      </cc:Work>
    </rdf:RDF>
  </metadata>
  <g
     inkscape:label="Vrstva 1"
     inkscape:groupmode="layer"
     id="layer1"
     transform="translate(588.10193,-398.65225)">
    <path
       style="opacity:1;color:#000000;fill:#ffffff;fill-opacity:1;fill-rule:nonzero;stroke:none;stroke-width:1.01942170000000010;stroke-linecap:round;stroke-linejoin:round;stroke-miterlimit:4;stroke-opacity:1;stroke-dasharray:none;stroke-dashoffset:0;marker:none;visibility:visible;display:inline;overflow:visible;enable-background:accumulate"
       d="M 0.6875 0.5 C 0.59114808 0.5 0.5 0.59114808 0.5 0.6875 L 0.5 572.8125 C 0.5 572.90885 0.59114808 573 0.6875 573 L 1919.625 573 C 1919.7214 573 1919.7812 572.90885 1919.7812 572.8125 L 1919.7812 0.6875 C 1919.7812 0.59114808 1919.7214 0.5 1919.625 0.5 L 0.6875 0.5 z M 324.34375 92.5 C 405.05355 92.5 470.46875 157.9152 470.46875 238.625 C 470.46875 284.7684 449.09052 325.90457 415.6875 352.6875 C 415.6651 352.7055 415.6474 352.7321 415.625 352.75 C 413.22922 354.6794 410.17518 356.31565 407.125 356.40625 C 400.45121 356.40625 395.0625 350.72623 395.0625 343.71875 C 395.14551 338.25737 398.2311 334.32307 403.375 330.5 C 429.18989 308.27711 445.53125 275.36248 445.53125 238.625 C 445.53125 171.69491 391.27384 117.4375 324.34375 117.4375 C 257.41367 117.4375 203.15625 171.69491 203.15625 238.625 C 203.15625 275.36248 219.49761 308.27711 245.3125 330.5 C 245.3013 330.5298 245.29245 330.56395 245.28125 330.59375 C 250.18673 334.94954 252.24764 338.92382 252.0625 343.3125 C 251.75502 350.60136 246.66284 355.66466 238.84375 354.46875 C 234.11515 353.74552 230.85834 350.71325 227.15625 347.71875 C 197.13693 320.95181 178.1875 282.00583 178.1875 238.625 C 178.1875 157.9152 243.63396 92.5 324.34375 92.5 z M 915.6875 116.6875 L 972.46875 116.6875 L 972.46875 243.84375 L 973.28125 243.84375 C 989.79581 221.96204 1011.4761 211.03148 1038.3125 211.03125 C 1069.6902 211.03148 1093.2982 222.38631 1109.125 245.09375 C 1122.887 264.91151 1129.7498 291.34583 1129.75 324.375 C 1129.7498 357.26677 1122.887 383.75097 1109.125 403.84375 C 1093.1606 427.23952 1069.5525 438.9375 1038.3125 438.9375 C 1008.8612 438.9375 986.62571 428.31881 971.625 407.125 L 970.8125 407.125 L 970.8125 433.78125 L 915.6875 433.78125 L 915.6875 116.6875 z M 1692.2812 122.25 L 1749.0625 122.25 L 1749.0625 176.34375 L 1692.2812 176.34375 L 1692.2812 122.25 z M 699.75 138.5625 L 766.625 138.5625 L 882.4375 433.78125 L 817 433.78125 L 791.625 366.0625 L 671.875 366.0625 L 646.09375 433.78125 L 584.78125 433.78125 L 699.75 138.5625 z M 324.34375 142.0625 C 377.68287 142.0625 420.9375 185.28589 420.9375 238.625 C 420.9375 266.12138 409.41502 290.93973 390.96875 308.53125 C 389.03041 310.32993 386.0172 311.40477 382.6875 311.6875 C 376.09713 311.6875 370.75 306.22596 370.75 299.46875 C 370.75 295.18168 372.78043 292.12703 376.15625 289.21875 C 376.16625 289.20865 376.1775 289.1977 376.1875 289.1875 C 388.94008 276.13872 396.78125 258.31406 396.78125 238.625 C 396.78125 198.62106 364.34769 166.1875 324.34375 166.1875 C 284.33981 166.1875 251.9375 198.62106 251.9375 238.625 C 251.9375 258.63437 260.04012 276.71248 273.15625 289.8125 C 276.01054 292.72349 278.14725 295.61359 278.15625 299.59375 C 278.17114 306.35094 272.61144 312.22169 265.78125 311.84375 C 261.47038 311.60521 257.86204 308.80121 255.25 306.03125 C 238.28182 288.62527 227.78125 264.85294 227.78125 238.625 C 227.78125 185.28589 271.00464 142.0625 324.34375 142.0625 z M 324.34375 190.5625 C 350.8983 190.5625 372.4375 212.07045 372.4375 238.625 C 372.4375 265.17955 350.8983 286.71875 324.34375 286.71875 C 297.7892 286.71875 276.28125 265.17955 276.28125 238.625 C 276.28125 212.07045 297.7892 190.5625 324.34375 190.5625 z M 731.53125 197.8125 L 688.8125 319.625 L 775.09375 319.625 L 732.375 197.8125 L 731.53125 197.8125 z M 1274.0625 211.03125 C 1307.0917 211.03148 1334.181 221.27576 1355.375 241.78125 C 1377.2567 262.97523 1388.2179 291.20637 1388.2188 326.4375 C 1388.2179 358.77877 1378.1551 385.31286 1358.0625 406.09375 C 1337.1437 427.97568 1309.156 438.9375 1274.0625 438.9375 C 1239.1064 438.9375 1211.1685 427.97568 1190.25 406.09375 C 1170.2948 385.31286 1160.3125 358.77877 1160.3125 326.4375 C 1160.3125 291.20637 1171.1932 262.97523 1192.9375 241.78125 C 1213.9936 221.27576 1241.0331 211.03148 1274.0625 211.03125 z M 1558.7188 211.03125 C 1583.3524 211.03148 1602.1566 219.08592 1615.0938 235.1875 C 1626.7908 250.05087 1632.6248 270.40845 1632.625 296.28125 L 1632.625 433.78125 L 1576.0625 433.78125 L 1576.0625 317.5625 C 1576.0623 298.43316 1574.4776 284.6451 1571.3125 276.25 C 1565.9451 262.07509 1555.2266 255.00017 1539.125 255 C 1520.9588 255.00017 1507.5133 263.52878 1498.8438 280.59375 C 1492.5125 293.25513 1489.3749 308.80876 1489.375 327.25 L 1489.375 433.78125 L 1432.5938 433.78125 L 1432.5938 215.96875 L 1486.2812 215.96875 L 1486.2812 245.71875 L 1487.3125 245.71875 C 1503.6894 222.59844 1527.4779 211.03148 1558.7188 211.03125 z M 1692.2812 215.96875 L 1749.0625 215.96875 L 1749.0625 433.78125 L 1692.2812 433.78125 L 1692.2812 215.96875 z M 1023.6562 255 C 1006.8664 255.00017 993.84558 262.71149 984.625 278.125 C 976.78045 291.19924 972.87491 306.62188 972.875 324.375 C 972.87491 342.67884 976.43731 358.28235 983.59375 371.21875 C 992.53909 387.04534 1005.5597 394.96879 1022.625 394.96875 C 1039.5524 394.96879 1052.1979 386.91433 1060.5938 370.8125 C 1067.1987 358.15133 1070.4998 342.67884 1070.5 324.375 C 1070.4998 306.34663 1067.2806 291.13614 1060.8125 278.75 C 1052.555 262.92363 1040.1707 255.00017 1023.6562 255 z M 1274.0625 255 C 1256.722 255.00017 1243.0145 261.68207 1232.9688 275.03125 C 1223.885 287.14214 1219.3431 302.0095 1219.3438 319.625 C 1219.3431 369.85714 1237.5925 394.96879 1274.0625 394.96875 C 1310.6698 394.96879 1328.968 369.85714 1328.9688 319.625 C 1328.968 301.59663 1324.4262 286.64816 1315.3438 274.8125 C 1305.4342 261.60095 1291.678 255.00017 1274.0625 255 z M 324.34375 312.3125 C 350.89829 312.3125 372.4375 333.85171 372.4375 360.40625 C 372.4375 360.45744 372.43766 360.5114 372.4375 360.5625 L 372.4375 433.28125 C 372.43774 433.34263 372.4375 433.376 372.4375 433.4375 C 372.4375 459.99204 350.89829 481.53125 324.34375 481.53125 C 297.78921 481.53125 276.28125 459.99204 276.28125 433.4375 C 276.28125 433.38631 276.2811 433.3636 276.28125 433.3125 C 276.27925 433.3018 276.28125 433.29225 276.28125 433.28125 L 276.28125 360.5625 C 276.2811 360.51134 276.28125 360.45735 276.28125 360.40625 C 276.28125 333.85171 297.78921 312.3125 324.34375 312.3125 z "
       transform="translate(-588.10193,398.65225)"
       id="rect3081" />
  </g>
</svg>
